src/assets/icons/address-book.svg

<svg width="14" height="14" viewBox="0 0 14 14" fill="none" xmlns="http://www.w3.org/2000/svg">
<g id="address-book">
<g clip-path="url(#clip0_295_4742)">
<path id="Vector" fill-rule="evenodd" clip-rule="evenodd" d="M1.99999 1.4C1.99999 1.3144 2.0804 1.2 2.23635 1.2H9.76362C9.91958 1.2 9.99999 1.3144 9.99999 1.4V12.6C9.99999 12.6856 9.91958 12.8 9.76362 12.8H2.23635C2.0804 12.8 1.99999 12.6856 1.99999 12.6V1.4ZM2.23635 0C1.46848 0 0.799988 0.601945 0.799988 1.4V12.6C0.799988 13.3981 1.46848 14 2.23635 14H9.76362C10.5315 14 11.2 13.3981 11.2 12.6V1.4C11.2 0.601945 10.5315 0 9.76362 0H2.23635ZM13.2 2.2C13.2 1.86863 12.9314 1.6 12.6 1.6C12.2686 1.6 12 1.86863 12 2.2V3.8C12 4.13137 12.2686 4.4 12.6 4.4C12.9314 4.4 13.2 4.13137 13.2 3.8V2.2ZM5.99999 5C5.77907 5 5.59999 5.17909 5.59999 5.4C5.59999 5.62091 5.77907 5.8 5.99999 5.8C6.2209 5.8 6.39999 5.62091 6.39999 5.4C6.39999 5.17909 6.2209 5 5.99999 5ZM4.39999 5.4C4.39999 4.51634 5.11633 3.8 5.99999 3.8C6.88364 3.8 7.59999 4.51634 7.59999 5.4C7.59999 6.28366 6.88364 7 5.99999 7C5.11633 7 4.39999 6.28366 4.39999 5.4ZM13.2 6.2C13.2 5.86863 12.9314 5.6 12.6 5.6C12.2686 5.6 12 5.86863 12 6.2V7.8C12 8.13137 12.2686 8.4 12.6 8.4C12.9314 8.4 13.2 8.13137 13.2 7.8V6.2ZM12.6 9.6C12.9314 9.6 13.2 9.86863 13.2 10.2V11.8C13.2 12.1314 12.9314 12.4 12.6 12.4C12.2686 12.4 12 12.1314 12 11.8V10.2C12 9.86863 12.2686 9.6 12.6 9.6ZM4.19999 9.6C4.19999 9.25337 4.25304 9.05554 4.30914 8.94333C4.35739 8.84683 4.41947 8.78861 4.51795 8.74172C4.63335 8.68676 4.8057 8.64529 5.06858 8.62282C5.33048 8.60044 5.63294 8.6 5.99999 8.6C6.36704 8.6 6.6695 8.60044 6.93139 8.62282C7.19428 8.64529 7.36663 8.68676 7.48203 8.74172C7.5805 8.78861 7.64258 8.84683 7.69083 8.94333C7.74694 9.05554 7.79999 9.25337 7.79999 9.6C7.79999 9.93137 8.06862 10.2 8.39999 10.2C8.73136 10.2 8.99999 9.93137 8.99999 9.6C8.99999 9.14663 8.93304 8.74446 8.76414 8.40667C8.58739 8.05317 8.31947 7.81139 7.99795 7.65828C7.69335 7.51324 7.3557 7.45471 7.03358 7.42718C6.71542 7.39999 6.36388 7.39999 6.01621 7.4H5.99999H5.98377C5.6361 7.39999 5.28455 7.39999 4.96639 7.42718C4.64428 7.45471 4.30663 7.51324 4.00203 7.65828C3.6805 7.81139 3.41258 8.05317 3.23583 8.40667C3.06694 8.74446 2.99999 9.14663 2.99999 9.6C2.99999 9.93137 3.26862 10.2 3.59999 10.2C3.93136 10.2 4.19999 9.93137 4.19999 9.6Z" fill="black"/>
</g>
</g>
<defs>
<clipPath id="clip0_295_4742">
<rect width="14" height="14" fill="white"/>
</clipPath>
</defs>
</svg>

<svg xmlns="http://www.w3.org/2000/svg" fill="none" viewBox="0 0 14 14"><g clip-path="url(#a)"><path fill="#000" fill-rule="evenodd" d="M2 1.4c0-.086.08-.2.236-.2h7.528c.156 0 .236.114.236.2v11.2c0 .086-.08.2-.236.2H2.236c-.156 0-.236-.114-.236-.2zM2.236 0C1.468 0 .8.602.8 1.4v11.2c0 .798.668 1.4 1.436 1.4h7.528c.768 0 1.436-.602 1.436-1.4V1.4c0-.798-.668-1.4-1.436-1.4zM13.2 2.2a.6.6 0 1 0-1.2 0v1.6a.6.6 0 1 0 1.2 0zM6 5a.4.4 0 1 0 0 .8.4.4 0 0 0 0-.8m-1.6.4a1.6 1.6 0 1 1 3.2 0 1.6 1.6 0 0 1-3.2 0m8.8.8a.6.6 0 1 0-1.2 0v1.6a.6.6 0 1 0 1.2 0zm-.6 3.4a.6.6 0 0 1 .6.6v1.6a.6.6 0 1 1-1.2 0v-1.6a.6.6 0 0 1 .6-.6m-8.4 0c0-.347.053-.544.11-.657a.4.4 0 0 1 .208-.201c.115-.055.288-.097.55-.12S5.634 8.6 6 8.6s.67 0 .931.023c.263.022.436.064.551.119.098.047.16.105.209.201.056.113.109.31.109.657a.6.6 0 0 0 1.2 0c0-.453-.067-.856-.236-1.193a1.6 1.6 0 0 0-.766-.749c-.305-.145-.642-.203-.964-.23A12 12 0 0 0 6.016 7.4h-.032c-.348 0-.7 0-1.018.027-.322.028-.66.086-.964.231-.321.153-.59.395-.766.749C3.066 8.744 3 9.147 3 9.6a.6.6 0 0 0 1.2 0" clip-rule="evenodd"/></g><defs><clipPath id="a"><path fill="#fff" d="M0 0h14v14H0z"/></clipPath></defs></svg>
